X:7951
T:Jessy The Flower of Dunblane
M:6/8
L:1/8
S:Armitt M/S
N:Alt. title Jesry or Jefry the Flower of Down Blaine.  Possibly.  No
N:time signature given.  E and B in bar 6 given as crochets but c/f bar
N:2.  It is possible the bar line before the note marked with an asterix
N:is  a crochet G!
K:D major
|de|(fgf) eaf|(dcd) ecd/2B/2|ABG FAd|def e2 d/2e/2|fgf eag|dcd e2B2d/2c/
2|
ABG FAd|e2 Bcd||:ege|fde fba|gde fdf|ecd eag|dcB A2 A|dfe fce|faf g2(e2
f2)|gab afc|eBc dcB|ABA FAd|faf gef |"*" aba f2 d2|fBcd||:
